X: 3381
M: 2/4
L: 1/16
K: D
uA2 |\
d2 |\
c2A2A2d2 | c2A2A2d2 | c2e2g2f2 | (f4 e2)d2 |\
c2A2A2d2 | c2A2a2d2 | c2d2e2c2 d6 d2 |
cAAA A2d2 | cAAA A2d2 | c2e2g2f2 | (f4 e2)d2 |\
cAAA A2d2 | cAAA a2d2 | c2d2e2c2 | d6 |:\
f3ed2c2 | d2B2A2G2 | F2d2E2d2 | d6 :|


